X:3
T:Mr Superman Pants
C:Colin Cotter
M:C
K:D
d2 AB =cBAG|FDAD BD =c2|d2 AB =cBAG|(3FGA B=c dg f2 :|
B2 B^A Bcde|fgfe f2 B2|A2 ag a2 ef|gfed cB A2|
=c2 cB cdef|gagf g2 (3fg^g|afge fdAG|(3FGA B=c dg f|]
